X:0
T:The Baron o' Brackley
S:Christie via "101 Scottish Songs"
M:3/4
L:1/8
Q:1/4=120
K:DMix
D2 |G2 A2 B>A|G>A B2 B>A|G2 D2 G>D|E4
D>E|G2 A2 B>A|G>A B2 B>A|G2 E2 E>D|D4
B<d|e2 A2 G<E|G>A B2 B<d|e2 A2 A>G|BA3
B>d|e2 A2 BA |G>E G2 B>A|G2 E2 E<D|D4|]
